svg/fridge_off_outline.svg

<svg xmlns="http://www.w3.org/2000/svg" viewBox="0 0 24 24"><path d="M22.11 21.46 2.39 1.73 1.11 3 5 6.89V19a2 2 0 0 0 2 2v1h2v-1h6v1h2v-1c.58 0 1.1-.25 1.46-.65l2.38 2.38zM17 19H7v-8h2.11L17 18.89zM7.2 4 5.7 2.5c.35-.31.8-.5 1.3-.5h10a2 2 0 0 1 2 2v11.8l-2-2V11h-2.8l-2-2H17V4zm.8 8h2v3H8z"/></svg>

<?xml version="1.0" encoding="UTF-8"?><!DOCTYPE svg PUBLIC "-//W3C//DTD SVG 1.1//EN" "http://www.w3.org/Graphics/SVG/1.1/DTD/svg11.dtd"><svg xmlns="http://www.w3.org/2000/svg" xmlns:xlink="http://www.w3.org/1999/xlink" version="1.1" id="mdi-fridge-off-outline" width="24" height="24" viewBox="0 0 24 24"><path d="M22.11 21.46L2.39 1.73L1.11 3L5 6.89V19C5 20.11 5.9 21 7 21V22H9V21H15V22H17V21C17.58 21 18.1 20.75 18.46 20.35L20.84 22.73L22.11 21.46M17 19H7V11H9.11L17 18.89V19M7.2 4L5.7 2.5C6.05 2.19 6.5 2 7 2H17C18.11 2 19 2.9 19 4V15.8L17 13.8V11H14.2L12.2 9H17V4H7.2M8 12H10V15H8V12Z" /></svg>
